X: 17445
T: Highlander's Farewell To Ireland, The
R: strathspey
M: 4/4
K: Adorian
A,2 A,>B, A,/A,/A, E>F|G>ED<B, G,/G,/G, D<G|
E>DE<G A>BA>G|E<GD<B, A,2 (3A,A,B,|
A,>A,A,>B, A,2 (3EEF|G>ED<B, G,/G,/G, D<G|
E>DE<G A>BA>G|E<GD<B, A,2 A,||
|:E|A>BA>E A>BA>E|G>AG>E D/C/B,/A,/ G,>G|
E>DE<G A>BA>G|E<GD<B, A,2 A,:|
B|A2 A>B A2 e>f|g>ed<B G2 e<g|
e>de<g a>ba>g|e<gd<B A2 (3ABB|
A>AA>B A2 (3eef|g>ed<B G2 e<g|
e>de<g a>ba>g|e<gd<B A2 A||
|:e|a>ba>e a>ba>e|g>ag>e d/c/B/A/ G>g|
e>de<g a>ba>g|e<gd<B A2 A:|
|:D|E>A, A,/A,/A, E>DE<G|B,>G, G,/G,/G, B,>A,B,<D|
E>A, A,/A,/A, E<DE<A|G<ED<B, A,2 z:|
z|e<aa>g a>ba>e|g<be<g d>gB<G|e<aa>g a>ba>e|d<eg>B A/A/A A>B|
e<aa>g a>ba>e|g<be<g d>gB<G|c<Ad>B e<Ag>e|a>eg<B A2 A||

